X:1
T:Title
%%score { ( 1 4 5 ) | ( 2 3 ) }
L:1/8
M:4/4
K:Eb
V:1 treble nm="Grand Piano"
V:4 treble 
V:5 treble 
V:2 bass 
V:3 bass 
V:1
 z4 z2[Q:1/4=100] E2 | G>_G =G>F E2 G2 | [GB]>[_G=A] [=GB]>[_Ac] [GB]2 [Ee]2 | [Ad]>c B>B c2 A2 | %4
 [EG]4 [DF]2 [B,DB]2 | G>_G =G>F E2 G2 | [GB]>[_G=A] [=GB]>[_Ac] [GB]2 [Ge]2 | e>c d>e d2 c2 | %8
[M:3/4] [DB]6 |[M:1/4] B2 |[M:4/4] [Ge]6 z2 | [Ad]6 z2 | [Ad]6 z2 | [Ac]4 z4 | [EG]6 z2 | %15
 c4 F2 c2 | B3 c [EG]2 [DF]2 |[M:3/4] [B,E]6 |] %18
V:2
 z4 z2 [E,G,]2 | [E,B,E]>[E,=A,E] [E,B,E]>[E,_A,B,] [E,G,B,]2 [E,B,E]2 | %2
 [E,E]>[E,E] [E,E]>[E,E] [E,E]2 [G,B,]2 | [F,C]>[K:treble][A,B,D] [G,B,E]>[G,B,E] [A,E]2 [A,CF]2 | %4
 B,6 z2 | [E,B,E]>[E,=A,E] [E,B,E]>[E,_A,B,] [E,G,B,]2 [E,B,E]2 | %6
 [E,E]>[E,E] [E,E]>[E,E] [E,E]2 [E,B,]2 | [F,=A,F]>[F,A,F] [F,B,F]>[F,CF] [F,B,F]2 [F,A,E]2 | %8
[M:3/4] [B,,B,]6 |[M:1/4] [B,A]2 |[M:4/4] [E,B,]2 E,2 E,>[E,B,] [E,B,]>[E,B,] | %11
 [F,B,]>B,, D,>F, B,2 D2 | B,,2 B,,2 B,,>B,, =B,,>B,, | E,>E, E,>E, E,2 D,2 | %14
 E,>E, E,>E, z z/ E/ F,>G, | A,>A, A,>A,[K:treble] [A,C]2 [=A,E_G]2 | %16
 [B,EG]3 [B,EG][K:bass] [B,,B,]2 [B,,A,]2 |[M:3/4] [E,G,]6 |] %18
V:3
 x8 | x8 | x8 | x3/2[K:treble] x13/2 | z4 B,,2 B,,2 | x8 | x8 | x8 |[M:3/4] x6 |[M:1/4] x2 | %10
[M:4/4] x8 | x8 | x8 | x8 | z4 E,2 z2 | x4[K:treble] x4 | x4[K:bass] x4 |[M:3/4] x6 |] %18
V:4
 x8 | x8 | x8 | x8 | x8 | x8 | x8 | x8 |[M:3/4] x6 |[M:1/4] x2 |[M:4/4] z2 B,2 B,>[Gd] [Gc]>[GB] | %11
 z z/ B,/ B,>B, F2 [FA]2 | F2 F2 F>[FAd] [DAc]>[DAd] | E>E E>E [EGB]2 [B,FA]2 | %14
 B,>B, B,>B, z z/ G/ [DA]>[EB] | E6 z2 | x8 |[M:3/4] x6 |] %18
V:5
 x8 | x8 | x8 | x8 | x8 | x8 | x8 | x8 |[M:3/4] x6 |[M:1/4] x2 |[M:4/4] x8 | x8 | x8 | x8 | %14
 z4 B,2 B,2 | x8 | x8 |[M:3/4] x6 |] %18

